X: 40695
T: Tornado, The
R: reel
M: 4/4
K: Gmajor
|:BAGB AGFA|dgg2 e2ef|gfge dBGB|AGFG A2BA|
BAGB AGED|dgg2 e2ef|gfge dBGB|1 AGFA G2dc:|2 AGFA G4||
|:{f}g2G2 {f}g2G2|gfge dBAG|AE2E E3G|FGAB cdef|
{f}g2G2 {f}g2G2|gfge dBAG|AE2E E2GB|1 AGFA G4:|2 AGFA G2dc||

